package/converter/svg/light/table-rows.svg

<svg xmlns="http://www.w3.org/2000/svg" viewBox="0 0 512 512"><!-- Font Awesome Pro 6.0.0-alpha2 by @fontawesome - https://fontawesome.com License - https://fontawesome.com/license (Commercial License) --><path d="M448 32H64C28.652 32 0 60.654 0 96V416C0 451.346 28.652 480 64 480H448C483.346 480 512 451.346 512 416V96C512 60.654 483.346 32 448 32ZM128 448H64C46.355 448 32 433.645 32 416V96C32 78.355 46.355 64 64 64H128V448ZM480 416C480 433.645 465.645 448 448 448H160V272H480V416ZM480 240H160V64H448C465.645 64 480 78.355 480 96V240Z"/></svg>

<svg xmlns="http://www.w3.org/2000/svg" viewBox="0 0 512 512"><!--! Font Awesome Pro 6.6.0 by @fontawesome - https://fontawesome.com License - https://fontawesome.com/license (Commercial License) Copyright 2024 Fonticons, Inc. --><path d="M32 96c0-17.7 14.3-32 32-32l64 0 0 176 0 32 0 176-64 0c-17.7 0-32-14.3-32-32L32 96zM160 272l320 0 0 144c0 17.7-14.3 32-32 32l-288 0 0-176zm320-32l-320 0 0-176 288 0c17.7 0 32 14.3 32 32l0 144zM0 416c0 35.3 28.7 64 64 64l384 0c35.3 0 64-28.7 64-64l0-320c0-35.3-28.7-64-64-64L64 32C28.7 32 0 60.7 0 96L0 416z"/></svg>
